X:1
T:Mulan's Decision
T:Mulan's Decision
T:Mulan (1998)
T:Jerry Goldsmith
T:Carter Smith
C:Jerry Goldsmith
Z:Carter Smith
%%score 1 { 2 | 3 }
L:1/8
Q:1/4=80
M:4/4
K:Ab
V:1 treble nm="Violin" snm="Vln."
V:2 treble nm="Piano" snm="Pno."
V:3 bass 
V:1
!mp! (3B,DE (3FED B,3 C | B,6 z2 | (3B,DE (3FED (3B,EF A2- | A2 G2 F4 | z2 d4 B2 | A2 F2 E2 F2 | %6
 _G6 B2- | B8- | B2 A4 F2- | F2 E4 C2- | C8 | E4 B,4- | B,4 C2 E2 | C2 B,6- |[M:2/4] B,4 | %15
[M:4/4] B8- | B4 c4 | F8- | !breath!F2 f2 a2 f2 | e4 c4- | !breath!c2 f2 a2 f2 | e8- | %22
 !breath!e2 a2 c4 |!<(! B8!<)! |[K:F]!f! fAdA eAdA | fBdB eBdB | fGBG cGdG | fcec dcec | %28
 fAdA eAdA | fBdB eBdB | fGBG cGdG | fcgc fcec | fAdA eAfA | eGcG dGeG | z4 fA g2 | %35
 (3F_AB (3cBA F3 G | F4- F4 | z2 _A2 G2 F2 | _E4 B4 |[M:2/4] c4- |[K:Ab][M:4/4] c4 z4 | z4 aBdB | %42
 eBfB aege | fege (3FAB (3cBA | F3 G/A/ B4 | E4 c2 =d2 | .=d z/ d/ .=e z z4 | z8 | z8 | z8 | z8 | %51
 z8 | z8 | z8 | z8 | z8 | z8 | z8 |] %58
V:2
!p! B,8- | B,2 [DF]6- | [DF]6 [CA]2- | [CA]8 | [DF]8 | [EA]4 [DE]2 [DF]2 | [B,_G]6 [FB]2- | %7
 [FB]8- | [FB]2 [Ec]4 [CA]2- | [CA]2 [Gc]4 [A,F]2- | [A,F]8 | C4 D4- | D4 E2 C2 | E2 D6- | %14
[M:2/4] D4 |[M:4/4] z4 [Bb]4 | z8 | z4 [cc']4- | [cc']2 A2 F2 A2 | G4 [Fcf]4- | [Fcf]2 A2 F2 A2 | %21
 G8 | z2 C2 C4 | =D8 |[K:F] z8 | z8 | z8 | z8 | z4 z4 | z8 | z8 | z8 | z8 | z8 | z8 | z8 | z8 | %37
 z8 | z8 |[M:2/4] z4 |[K:Ab][M:4/4] z8 | z8 | z8 | z8 | z8 | z8 | z8 | z8 | z8 | z8 | z8 | z8 | %52
 z8 | z8 | z8 | z8 | z8 | z8 |] %58
V:3
 z8 | z2 [B,,,B,,]6- | [B,,,B,,]6 [F,,,F,,]2- | [F,,,F,,]8 | [B,,,B,,]8 | A,,4 _G,,4- | G,,4 z4 | %7
 z8 | z8 | z8 | z4 [F,,,F,,]4- | [F,,,F,,]8- | [F,,,F,,]8- | [F,,,F,,]4 [F,,,F,,]2 [F,,,F,,]2- | %14
[M:2/4] [F,,,F,,]4 |[M:4/4] [_G,,,_G,,-]8 | G,,2 _G,,2 [E,,,E,,]4 | [F,,,F,,]8 | %18
 z2 [F,,,F,,]2 [F,,,F,,]4 | [E,,,E,,]4 [F,,,F,,]4 | z2 [F,,,F,,]2 [F,,,F,,]4 | [E,,,E,,]8 | %22
 z2 [F,,,F,,]2 [F,,,F,,]4 |!<(! [B,,,F,,B,,]4- T[B,,,F,,B,,]4!<)! |[K:F]!8vb(! [D,,,D,,]8!8vb)! | %25
 [B,,,B,,]8 | [G,,,G,,]8 | [C,,C,]8 | x8 | x8 | x8 | x8 |!8vb(! [D,,,D,,]8!8vb)! | [C,,C,]8 | z8 | %35
 z8 | z8 | z8 | z8 |[M:2/4] z4 |[K:Ab][M:4/4] z8 | z8 | z8 | z8 | z8 | z8 | z8 | z8 | z8 | z8 | %50
 z8 | z8 | z8 | z8 | z8 | z8 | z8 | z8 |] %58

